assets/images/afrikons/next-outline.svg

<svg viewBox="0 0 50 50" xmlns="http://www.w3.org/2000/svg"><path d="m0 0h50v50h-50z" fill="none"/><g fill="#0a0a0a"><path d="m3.3 12.14a1.69 1.69 0 0 1 .92.28l17.23 11.14a1.72 1.72 0 0 1 0 2.88l-17.23 11.13a1.62 1.62 0 0 1 -.92.29 1.73 1.73 0 0 1 -1.73-1.73v-22.26a1.73 1.73 0 0 1 1.73-1.73m0-1.57a3.3 3.3 0 0 0 -3.3 3.3v22.26a3.29 3.29 0 0 0 5.08 2.77l17.22-11.14a3.28 3.28 0 0 0 0-5.52l-17.22-11.14a3.32 3.32 0 0 0 -1.78-.53z"/><path d="m29.5 12.14a1.74 1.74 0 0 1 .92.28l17.22 11.14a1.71 1.71 0 0 1 0 2.88l-17.22 11.14a1.71 1.71 0 0 1 -2.65-1.45v-22.26a1.73 1.73 0 0 1 1.73-1.73m0-1.57a3.29 3.29 0 0 0 -3.3 3.3v22.26a3.28 3.28 0 0 0 5.07 2.77l17.23-11.14a3.29 3.29 0 0 0 0-5.52l-17.23-11.14a3.28 3.28 0 0 0 -1.77-.53z"/></g></svg>

<svg xmlns="http://www.w3.org/2000/svg" viewBox="0 0 50 50"><defs><style>.cls-1{fill:none;}.cls-2{fill:#0a0a0a;}</style></defs><title>next-outline</title><g id="Layer_2" data-name="Layer 2"><g id="Layer_1-2" data-name="Layer 1"><rect class="cls-1" width="50" height="50"/><path class="cls-2" d="M3.3,12.14a1.69,1.69,0,0,1,.92.28L21.45,23.56a1.72,1.72,0,0,1,0,2.88L4.22,37.57a1.62,1.62,0,0,1-.92.29,1.73,1.73,0,0,1-1.73-1.73V13.87A1.73,1.73,0,0,1,3.3,12.14m0-1.57A3.3,3.3,0,0,0,0,13.87V36.13A3.29,3.29,0,0,0,5.08,38.9L22.3,27.76a3.28,3.28,0,0,0,0-5.52L5.08,11.1a3.32,3.32,0,0,0-1.78-.53Z"/><path class="cls-2" d="M29.5,12.14a1.74,1.74,0,0,1,.92.28L47.64,23.56a1.71,1.71,0,0,1,0,2.88L30.42,37.58a1.71,1.71,0,0,1-2.65-1.45V13.87a1.73,1.73,0,0,1,1.73-1.73m0-1.57a3.29,3.29,0,0,0-3.3,3.3V36.13a3.28,3.28,0,0,0,5.07,2.77L48.5,27.76a3.29,3.29,0,0,0,0-5.52L31.27,11.1a3.28,3.28,0,0,0-1.77-.53Z"/></g></g></svg>
